src/assets/images/icons/mic-off.svg

<svg width="24" height="24" viewBox="0 0 24 24" fill="none" xmlns="http://www.w3.org/2000/svg">
<g clip-path="url(#clip0_16_4257)">
<path d="M1 0.99997L23 23M15 9.33997V3.99997C15.0007 3.256 14.725 2.53829 14.2264 1.98617C13.7277 1.43405 13.0417 1.08691 12.3015 1.01214C11.5613 0.937375 10.8197 1.14031 10.2207 1.58156C9.62172 2.0228 9.20805 2.67088 9.06 3.39997M17 16.95C16.0238 17.9464 14.7721 18.6284 13.4056 18.9086C12.0391 19.1887 10.62 19.0542 9.3305 18.5223C8.04096 17.9903 6.93976 17.0852 6.16817 15.9231C5.39658 14.761 4.98979 13.3949 5 12V9.99997M19 9.99997V12C18.9996 12.4124 18.9628 12.824 18.89 13.23M12 19V23M8 23H16M9 8.99997V12C9.00052 12.5929 9.17675 13.1724 9.50643 13.6653C9.83611 14.1582 10.3045 14.5423 10.8523 14.7691C11.4002 14.996 12.0029 15.0554 12.5845 14.9398C13.1661 14.8243 13.7005 14.539 14.12 14.12L9 8.99997Z" stroke="#181D27" stroke-width="2" stroke-linecap="round" stroke-linejoin="round"/>
</g>
<defs>
<clipPath id="clip0_16_4257">
<rect width="24" height="24" fill="white"/>
</clipPath>
</defs>
</svg>

<svg xmlns="http://www.w3.org/2000/svg" fill="none" viewBox="0 0 24 24"><g clip-path="url(#a)"><path stroke="#181D27" stroke-linecap="round" stroke-linejoin="round" stroke-width="2" d="m1 1 22 22M15 9.34V4a3 3 0 0 0-5.94-.6M17 16.95A7 7 0 0 1 5 12v-2m14 0v2q0 .62-.11 1.23M12 19v4m-4 0h8M9 9v3a3 3 0 0 0 5.12 2.12z"/></g><defs><clipPath id="a"><path fill="#fff" d="M0 0h24v24H0z"/></clipPath></defs></svg>
